X: 39
T: Lazy Bird
C: Armand Aromin
H: 4/18/05
M: 4/4
L: 1/8
R: Hornpipe
K: Gmaj
(3Bcd || g2 ed BAGA | B2 E2 E2 GE | D2 G2 G2 ED | E2 A2 A2 (3Bcd  |
g2 ed BAGA | B2 E2 E2 GE | D2 G2 G2 ED | D2 G2 G2 (3Bcd :|
g2 ed g2 ed | g2 a2 a2 ba | g2 ed g2 ed | B2 A2 A2 (3Bcd |
g2 ed BAGA | B2 E2 E2 GE | D2 G2 G2 ED | D2 G2 G2 (3Bcd :|
